public/icons/packing_box_icon.svg

<svg width="330" height="330" viewBox="0 0 330 330" fill="none" xmlns="http://www.w3.org/2000/svg">
<path d="M114.266 39.431L218.932 39.3832C237.538 39.3832 256.774 38.3946 275.308 39.5932C277.624 39.7428 281.359 39.6626 283.074 41.4317C284.768 43.1773 285.387 44.968 285.61 47.3256C286.296 54.6065 285.872 62.2172 285.855 69.5324L285.768 110.101L285.753 236.725C278.793 245.936 270.612 254.547 263.043 263.277C256.241 271.12 249.59 279.73 242.137 286.942C235.319 293.54 225.422 291.618 216.642 291.47L94.574 291.494C85.6674 291.494 55.0198 292.672 49.0493 290.904C47.6172 290.479 46.5646 289.216 45.84 287.945C44.6982 285.942 44.3188 283.419 44.2359 281.136C43.8529 270.642 44.4693 259.811 44.4675 249.274L44.454 172.692C44.4495 159.36 42.9598 95.4621 45.402 86.8961C46.4042 83.3831 106.579 43.7928 114.266 39.431Z" fill="black"/>
<path d="M173.054 94.05L230.885 94.0563C229.834 134.238 230.843 174.732 230.847 214.945L230.84 282.095L53.3369 282.07L53.3927 94.0644L115.604 94.0482C115.594 104.466 113.938 150.301 117.086 157.077C118.143 157.557 119.07 157.847 120.224 157.969C127.66 158.755 135.535 157.931 143.027 157.941C151.037 157.951 159.432 158.804 167.378 158.008C169.241 157.822 170.348 157.706 171.84 156.519C174.781 147.779 173.093 106.111 173.054 94.05Z" fill="#FED200"/>
<path d="M201.232 200.711C205.132 204.522 210.582 211.133 213.217 215.88C214.295 217.823 214.308 219.049 213.751 221.143C211.72 222.63 209.904 222.34 207.443 222.499C207.018 222.848 206.463 223.081 206.167 223.545C204.923 225.499 207.097 241.146 205.67 246.108C204.96 248.575 203.478 249.334 201.313 250.501C191.768 244.343 200.499 228.853 196.624 221.546C195.192 222.369 193.634 223.168 191.93 222.693C190.116 222.187 189.57 221.256 188.59 219.802C188.292 214.277 197.725 205.062 201.232 200.711Z" fill="black"/>
<path d="M153.664 257.81C164.458 257.735 205.774 256.133 213.219 258.62C214.424 259.754 215.257 260.327 215.258 262.157C215.26 264.215 214.108 265.626 212.763 267.029C204.739 267.104 156.461 268.508 152.833 265.9C151.706 265.089 151.235 264.111 151.189 262.707C151.12 260.633 152.32 259.218 153.664 257.81Z" fill="black"/>
<path d="M164.065 201.26C167.931 203.485 175.459 213.556 177.118 217.725C177.034 219.629 177.113 220.09 176.018 221.723C173.857 222.797 171.795 222.39 169.471 222.191C166.881 225.252 172.115 243.374 166.853 249.598C164.765 249.67 162.984 249.596 161.459 248.031C157.8 244.28 160.604 231.323 160.415 226.166C160.359 224.635 160.221 223.026 159.079 221.959L158.445 222.773L158.936 221.97C157.505 222.142 155.41 222.42 154.019 221.985C152.685 221.568 152.489 220.886 151.825 219.795C151.449 214.702 160.855 205.33 164.065 201.26Z" fill="black"/>
<path d="M276.256 56.0657C277.227 61.3387 276.637 67.6598 276.631 73.0499L276.536 106.638L276.54 233.028C265.509 247.483 252.344 261.132 240.29 274.8C238.743 269.632 239.891 236.585 239.892 228.313L239.891 90.9742C251.859 79.1899 264.164 67.7238 276.256 56.0657Z" fill="#FED200"/>
<path d="M124.438 94.0696L164.246 94.0831L164.243 148.838L124.42 148.847L124.438 94.0696Z" fill="#FEFEFE"/>
<path d="M116.388 48.9253C131.328 48.4557 146.415 48.8964 161.371 48.8973L118.704 84.2943L109.37 84.3628C93.9709 84.278 78.5709 84.3078 63.1719 84.4529L116.388 48.9253Z" fill="#FED200"/>
<path d="M222.452 48.8848L270.634 48.9064C262.636 55.5997 238.664 81.5736 232.214 84.3781L182.952 84.334L222.452 48.8848Z" fill="#FED200"/>
<path d="M176.198 48.9495L207.844 48.9531C202.667 53.8602 171.552 83.7372 167.641 84.3581L133.397 84.4645C147.869 72.9064 161.473 60.1786 176.198 48.9495Z" fill="#FEFEFE"/>
</svg>

<svg xmlns="http://www.w3.org/2000/svg" width="330" height="330" fill="none" viewBox="0 0 330 330"><path fill="#000" d="m114.266 39.431 104.666-.048c18.606 0 37.842-.988 56.376.21 2.316.15 6.051.07 7.766 1.839 1.694 1.745 2.313 3.536 2.536 5.894.686 7.28.262 14.891.245 22.206l-.087 40.569-.015 126.624c-6.96 9.211-15.141 17.822-22.71 26.552-6.802 7.843-13.453 16.453-20.906 23.665-6.818 6.598-16.715 4.676-25.495 4.528l-122.068.024c-8.907 0-39.554 1.178-45.525-.59-1.432-.425-2.484-1.688-3.209-2.959-1.142-2.003-1.521-4.526-1.604-6.809-.383-10.494.233-21.325.232-31.862l-.014-76.582c-.005-13.332-1.494-77.23.948-85.796 1.002-3.513 61.177-43.103 68.864-47.465"/><path fill="#fed200" d="m173.054 94.05 57.831.006c-1.051 40.182-.042 80.676-.038 120.889l-.007 67.15-177.503-.025.056-188.006 62.211-.016c-.01 10.418-1.666 56.253 1.482 63.029 1.057.48 1.984.77 3.138.892 7.436.786 15.311-.038 22.803-.028 8.01.01 16.405.863 24.351.067 1.863-.186 2.97-.302 4.462-1.489 2.941-8.74 1.253-50.408 1.214-62.469"/><path fill="#000" d="M201.232 200.711c3.9 3.811 9.35 10.422 11.985 15.169 1.078 1.943 1.091 3.169.534 5.263-2.031 1.487-3.847 1.197-6.308 1.356-.425.349-.98.582-1.276 1.046-1.244 1.954.93 17.601-.497 22.563-.71 2.467-2.192 3.226-4.357 4.393-9.545-6.158-.814-21.648-4.689-28.955-1.432.823-2.99 1.622-4.694 1.147-1.814-.506-2.36-1.437-3.34-2.891-.298-5.525 9.135-14.74 12.642-19.091m-47.568 57.099c10.794-.075 52.11-1.677 59.555.81 1.205 1.134 2.038 1.707 2.039 3.537.002 2.058-1.15 3.469-2.495 4.872-8.024.075-56.302 1.479-59.93-1.129-1.127-.811-1.598-1.789-1.644-3.193-.069-2.074 1.131-3.489 2.475-4.897m10.401-56.55c3.866 2.225 11.394 12.296 13.053 16.465-.084 1.904-.005 2.365-1.1 3.998-2.161 1.074-4.223.667-6.547.468-2.59 3.061 2.644 21.183-2.618 27.407-2.088.072-3.869-.002-5.394-1.567-3.659-3.751-.855-16.708-1.044-21.865-.056-1.531-.194-3.14-1.336-4.207l-.634.814.491-.803c-1.431.172-3.526.45-4.917.015-1.334-.417-1.53-1.099-2.194-2.19-.376-5.093 9.03-14.465 12.24-18.535"/><path fill="#fed200" d="M276.256 56.066c.971 5.273.381 11.594.375 16.984l-.095 33.588.004 126.39c-11.031 14.455-24.196 28.104-36.25 41.772-1.547-5.168-.399-38.215-.398-46.487l-.001-137.339c11.968-11.784 24.273-23.25 36.365-34.908"/><path fill="#fefefe" d="m124.438 94.07 39.808.013-.003 54.755-39.823.009z"/><path fill="#fed200" d="M116.388 48.925c14.94-.47 30.027-.029 44.983-.028l-42.667 35.397-9.334.069q-23.1-.127-46.198.09zm106.064-.04 48.182.021c-7.998 6.694-31.97 32.668-38.42 35.472l-49.262-.044z"/><path fill="#fefefe" d="m176.198 48.95 31.646.003c-5.177 4.907-36.292 34.784-40.203 35.405l-34.244.106c14.472-11.558 28.076-24.285 42.801-35.514"/></svg>
